X:19070
T:Xiraldilla (CT 386)
R:Xiraldilla
C:Tradicional
S:Música Tradicional Asturiana, (C) Tello & Tito. Asturies, 2001.
S:http://pagina.de/MusTradAst <telloytito@asturies.org>
N:Xiraldilla, transcrita en Uviéu.
N:Esta xiraldilla es, ya de antiguo, muy corriente en las romerías que se celebran en el concejo de Uviéu.
O:Uviéu
A:Asturies
Z:Cancioneru de Torner 386
M:2/4
L:1/8
Q:1/4=160
W:No voy sola,
W:no voy sola,
W:no voy sola
W:al jardín del Olivar,
W:del Olivar;
W:no voy sola,
W:no voy sola,
W:no voy sola:
W:mi amor me va acompañar,
W:a acompañar.
W:
W:
W:Estribillu:
W:Arriba, Manolillo,
W:abajor, Manolé;
W:de la quinta pasada
W:yo te liberté.
W:De la que viene ahora,
W:no sé si podré:
W:arriba, Manolillo,
W:Manolilló, Manolé.
K:G
|: g2 d2|B>c de|ed cB|d2 c2|a2 f2|d>e fg|fe dc|[1 B2 z2 :|[2 B2 zA|
BB cc|d B2 A|BB cc|d2 zd|ed cB|d c2 B|A2 Bc|B2 zA|
BB cc|d B2 A|B2 cc|d2 zd|ed cB|dd cB|AA Bc|B2||


